dist/svgs/unicons/line/book.svg

<svg xmlns="http://www.w3.org/2000/svg" data-name="Layer 1" viewBox="0 0 24 24"><path d="M15 6H9a1 1 0 00-1 1v4a1 1 0 001 1h6a1 1 0 001-1V7a1 1 0 00-1-1zm-1 4h-4V8h4zm3-8H5a1 1 0 00-1 1v18a1 1 0 001 1h12a3 3 0 003-3V5a3 3 0 00-3-3zm1 17a1 1 0 01-1 1H6V4h11a1 1 0 011 1z"/></svg>

<svg xmlns="http://www.w3.org/2000/svg" data-name="Layer 1" viewBox="0 0 24 24"><path d="M15,6H9A1,1,0,0,0,8,7v4a1,1,0,0,0,1,1h6a1,1,0,0,0,1-1V7A1,1,0,0,0,15,6Zm-1,4H10V8h4Zm3-8H5A1,1,0,0,0,4,3V21a1,1,0,0,0,1,1H17a3,3,0,0,0,3-3V5A3,3,0,0,0,17,2Zm1,17a1,1,0,0,1-1,1H6V4H17a1,1,0,0,1,1,1Z"/></svg>
